X:85
T:Irish Stew* (r)
B:NFID.172 ("untitled reel")
085irish_s
S:F&MB
N:This reel seems to be comprised of parts of other tunes -
maybe "Morning Dew" in part A, "Glass of Beer" in part B,
"Miss Patterson's Slippers" in part D!
L:1/8
M:C
R:reel
Q:360
K:Em
P:part A
E2E2 BAFD|E2 ~E2 dAFD|E2~E2 BAFA|BdAB FAD|
P:part B
Beed B^cdA|Bee^c dAFA|Eeed B^cde|(3efg ef dAFA|
Eeed B^cdA|Beef dAFD|Eeed B^cde|faef dAFE||
P:part C
fB ~B2 fe^ce|fBfb eA^ce|fB ~B2 fe^ce|faef ^ceAG|
fB ~B2 fe^ce|fBfb eA^ce|fB ~B2 fe^ce|faef ^ceAD||
P:part D
B,EEF GEFD|A,DDE FDED|B,EEF GFGB|AFdf FEED|
B,EEF (3GFE (3FED|A,DDE (3FED (3FED|GBGB FBFB|AFdF E4|]

%%%

